!!!COM: Haydn, Franz Joseph
!!!OTL: String Quartet in C Major
!!!OPS: Opus 33
!!!ONM: No. 3
!!!OMD: Allegro moderato
!!!OMV: 1
!!!SCT: H III:39
!!!SCA: Thematisch-bibliographisches Werkevererzeichnis (A. van Hoboken)
!!!YOR: Richault Edition, volume 7
!!!ENC: Frances Bennion
!!!CDT: 1732/3/31/-1809/5/31/
!!!CNT: Oesterreich
!!!YEC: Copyright (c) 1994, 2000 Center for Computer Assisted Research in the Humanities
!!!YEM: Rights to all derivative editions reserved.
!!!YEM: Refer to licensing agreement for further details.
!!!YEN: United States of America
**kern	**kern	**kern	**kern
*k[]	*k[]	*k[]	*k[]
*C:	*C:	*C:	*C:
*clefF4	*clefC3	*clefF	*clefF
*M4/4	*M4/4	*M4/4	*M4/4
1r	8e	8cc	1r
.	8e	8cc	.
.	8e	8cc	.
.	8e	8cc	.
.	8e	8cc	.
.	8e	8cc	.
.	8e	8cc	.
.	8e	8cc	.
=2	=2	=2	=2
1r	8e	8cc	1gg
.	8e	8cc	.
.	8e	8cc	.
.	8e	8cc	.
.	8e	8cc	.
.	8e	8cc	.
.	8e	8cc	.
.	8e	8cc	.
=3	=3	=3	=3
1r	8e	8cc	2gg
.	8e	8cc	.
.	8e	8cc	.
.	8e	8cc	.
.	8e	8cc	2gg
.	8e	8cc	.
.	8e	8cc	.
.	8e	8cc	.
=4	=4	=4	=4
4r	4e	4cc	[2gg
4CC	2e	2g	.
4EE	.	.	8gg]
.	.	.	16ee
.	.	.	16gg
4GG	4f	8b	8ff
.	.	8dd	16dd
.	.	.	16b
=5	=5	=5	=5
4C	4e	4cc	16b
.	.	.	16cc
.	.	.	16ee
.	.	.	16cc
4C	2G	2e	4.g
4E	.	.	.
.	.	.	16e
.	.	.	16g
4G	8B	4f	8f
.	8d	.	16d
.	.	.	16B
=6	=6	=6	=6
4c	4c	4e	16B
.	.	.	16c
.	.	.	16e
.	.	.	16c
2.r	2.r	2.r	8G
.	.	.	2r
.	.	.	8r
=7	=7	=7	=7
1r	8f	8dd	1r
.	8f	8dd	.
.	8f	8dd	.
.	8f	8dd	.
.	8f	8dd	.
.	8f	8dd	.
.	8f	8dd	.
.	8f	8dd	.
=8	=8	=8	=8
1r	8f	8dd	1aa
.	8f	8dd	.
.	8f	8dd	.
.	8f	8dd	.
.	8f	8dd	.
.	8f	8dd	.
.	8f	8dd	.
.	8f	8dd	.
=9	=9	=9	=9
1r	8f	8dd	2aa
.	8f	8dd	.
.	8f	8dd	.
.	8f	8dd	.
.	8f	8dd	2aa
.	8f	8dd	.
.	8f	8dd	.
.	8f	8dd	.
=10	=10	=10	=10
4r	4f	4dd	[2aa
4DD	2f	2a	.
4FF	.	.	8aa]
.	.	.	16ff
.	.	.	16aa
4AA	4g	8cc#	8gg
.	.	8ee	16ee
.	.	.	16cc#
=11	=11	=11	=11
4D	4f	4dd	16cc#
.	.	.	16dd
.	.	.	16ff
.	.	.	16dd
4D	2A	2f	4.a
4F	.	.	.
.	.	.	16f
.	.	.	16a
4A	8c#	4g	8g
.	8e	.	16e
.	.	.	16c#
=12	=12	=12	=12
4d	4d	4f	16c#
.	.	.	16d
.	.	.	16f
.	.	.	16d
2.r	2.r	2.r	8A
.	.	.	2r
.	.	.	8r
=13	=13	=13	=13
1r	8B-	8d	1r
.	8B-	8d	.
.	8B-	8d	.
.	8B-	8d	.
.	8B-	8d	.
.	8B-	8d	.
.	8B-	8d	.
.	8B-	8d	.
=14	=14	=14	=14
1r	8B-	8d	[2gg
.	8B-	8d	.
.	8B-	8d	.
.	8B-	8d	.
.	8B-	8d	8gg]
.	8B-	8d	16aa
.	.	.	16bb-
.	8B-	8d	16aa
.	.	.	16gg
.	8B-	8d	16ff
.	.	.	16ee
=15	=15	=15	=15
1r	1A	2.e	2dd
.	.	.	4cc#
.	.	4f	4dd
=16	=16	=16	=16
1r	2.G	2.f	2cc
.	.	.	4b
.	4A	4e	4cc
=17	=17	=17	=17
1r	2F	4.a	4.dd
.	.	8f	16ff
.	.	.	16aa
.	4G	4e	4cc
.	4G	4d	4b
=18	=18	=18	=18
8CC	2c	[2e	[1cc
8EE	.	.	.
8GG	.	.	.
8BB	.	.	.
8C	2r	8e]	.
8E	.	8g	.
8D	.	8f	.
8C	.	8e	.
=19	=19	=19	=19
2D	2r	2f	4.cc]
.	.	.	16dd
.	.	.	16cc
2r	8d	2r	8b
.	8e	.	8cc
.	8e	.	8cc#
.	8f	.	8dd
=20	=20	=20	=20
8GG	8f	[2f	[1dd
8BB	8d	.	.
8D	4.B	.	.
8E	.	.	.
8F	.	8f]	.
8A	8B	8d	.
8G	8c	8e	.
8F	8d	8f	.
=21	=21	=21	=21
2E	2e	2g	4.dd]
.	.	.	16ee
.	.	.	16dd
2r	8r	2r	8cc
.	8d	.	8b
.	8e	.	8cc
.	8f	.	8dd
=22	=22	=22	=22
8C	2.g	2r	[2ee
8E	.	.	.
8G	.	.	.
8B	.	.	.
8c	.	2ee	8ee]
8B	.	.	8ee
8A	8cc	.	8ff
8G	8b	.	8gg
=23	=23	=23	=23
8F	[2a	2ff	1aa
8A	.	.	.
8c#	.	.	.
8d	.	.	.
8f	8a]	4dd	.
8e	8g	.	.
8d	8f	[4ff	.
8c	8e	.	.
=24	=24	=24	=24
8B	8d	2ff]	[2gg
8c	8e	.	.
8d	8f	.	.
8B	8d	.	.
8c	2c	8ee	8gg]
8B	.	8dd	16aa
.	.	.	16bb
8A	.	8cc	8ccc
8G	.	8cc	8bb
=25	=25	=25	=25
8G	1c	1cc	8bb
8F	.	.	8aa
8F	.	.	8aa
8E	.	.	8gg
8E	.	.	8gg
8D	.	.	8ff
8D	.	.	8ff
8C	.	.	8ee
=26	=26	=26	=26
2.GG	2.G	4.ee	4.gg
.	.	16dd	16ff
.	.	16cc	16ee
.	.	4b	4dd
4r	4r	4r	4r
=27	=27	=27	=27
1r	8b	8dd	1r
.	8b	8dd	.
.	8b	8dd	.
.	8b	8dd	.
.	8b	8dd	.
.	8b	8dd	.
.	8b	8dd	.
.	8b	8dd	.
=28	=28	=28	=28
1r	4b	1dd	16ccc#
.	.	.	16ddd
.	.	.	16bb
.	.	.	16gg
.	4r	.	8dd
.	.	.	8r
.	4a	.	16bb
.	.	.	16ccc
.	.	.	16aa
.	.	.	16ff#
.	4r	.	8dd
.	.	.	8r
=29	=29	=29	=29
1r	4g	2dd	16ff#
.	.	.	16gg
.	.	.	16bb
.	.	.	16gg
.	4r	.	8dd
.	.	.	8r
.	4f#	2dd	16gg
.	.	.	16ff#
.	.	.	16aa
.	.	.	16ff#
.	4r	.	8dd
.	.	.	8r
=30	=30	=30	=30
2B-	2g	1dd	8r
.	.	.	8dd
.	.	.	8ccc#
.	.	.	8ddd
2A	2f#	.	8r
.	.	.	8dd
.	.	.	8bb
.	.	.	8ccc
=31	=31	=31	=31
2G	2g	2dd	8r
.	.	.	8dd
.	.	.	8aa
.	.	.	8bb-
2d	2f#	2dd	8r
.	.	.	8dd
.	.	.	8gg#
.	.	.	8aa
=32	=32	=32	=32
2G	4g	4d 4b-	16ff#
.	.	.	16gg
.	.	.	16bb-
.	.	.	16gg
.	4r	4r	8dd
.	.	.	8r
2r	16f#	4bb-	4ddd
.	16g	.	.
.	16b-	.	.
.	16g	.	.
.	8d	4bb-	4ddd
.	8r	.	.
=33	=33	=33	=33
2D	4f#	4d 4a	16gg
.	.	.	16ff#
.	.	.	16aa
.	.	.	16ff#
.	4r	4r	8dd
.	.	.	8r
2r	16g	4aa	4ccc
.	16f#	.	.
.	16a	.	.
.	16f#	.	.
.	8d	4aa	4ccc
.	8r	.	.
=34	=34	=34	=34
4G	4b-	4d 4b-	16f#
.	.	.	16g
.	.	.	16b-
.	.	.	16g
4r	4r	2.r	8d
.	.	.	8r
16F#	4b-	.	4dd
16G	.	.	.
16B-	.	.	.
16G	.	.	.
8D	4b-	.	4dd
8r	.	.	.
=35	=35	=35	=35
4DD	4d	4f# 4a	16g
.	.	.	16f#
.	.	.	16a
.	.	.	16f#
4r	4r	2.r	8d
.	.	.	8r
16G	4a	.	4cc
16F#	.	.	.
16A	.	.	.
16F#	.	.	.
8D	4a	.	4cc
8r	.	.	.
=36	=36	=36	=36
16F#	2G	2d 2b	2gg
16G	.	.	.
16F#	.	.	.
16G	.	.	.
8GG	.	.	.
2r	.	.	.
.	2r	4b	4gg
.	.	4b	4gg
8r	.	.	.
=37	=37	=37	=37
4.f#	[2dd	4.a	4.ccc
8g	.	8b	8bb
4a	8dd]	8cc	8aa
.	8r	8r	8r
4r	4dd	8cc	16ff#
.	.	.	16gg
.	.	8b	16aa
.	.	.	16gg
=38	=38	=38	=38
4.f#	[2dd	4.a	4.ccc
8g	.	8b	8bb
4a	8dd]	8cc	8aa
.	8r	8r	8r
4r	4dd	8cc	16ff#
.	.	.	16gg
.	.	8b	16aa
.	.	.	16gg
=39	=39	=39	=39
1r	4dd	8cc	16ff#
.	.	.	16gg
.	.	8b	16aa
.	.	.	16gg
.	4dd	8cc	16ff#
.	.	.	16gg
.	.	8b	16aa
.	.	.	16gg
.	4dd	8cc	16ff#
.	.	.	16gg
.	.	8b	16aa
.	.	.	16gg
.	4dd	8cc	16ff#
.	.	.	16gg
.	.	8b	16aa
.	.	.	16gg
=40	=40	=40	=40
2.F#	2.a	4.ccc	4.eee
.	.	8bb	8ddd
.	.	4aa	4ccc
4G	4d	4gg	4bb
=41	=41	=41	=41
2C	4e	4ee	4.aa
.	2r	2r	.
.	.	.	8gg#
4r	.	.	8gg
.	.	.	8ff#
4D	4f#	4cc	8ee
.	.	.	8dd
=42	=42	=42	=42
4GG	4g	4b	4gg
2.r	2.r	2.r	8r
.	.	.	8f#
.	.	.	8g
.	.	.	8a
.	.	.	8b
.	.	.	8cc
=43	=43	=43	=43
1r	1r	8g	2dd
.	.	8d	.
.	.	8g	.
.	.	8d	.
.	.	8g	4dd
.	.	8d	.
.	.	8g	4dd
.	.	8d	.
=44	=44	=44	=44
1r	1r	8b	8dd
.	.	8d	8cc
.	.	8a	8cc
.	.	8d	8b
.	.	8g	8b
.	.	8d	4.r
.	.	8g	.
.	.	8d	.
=45	=45	=45	=45
1r	1r	8a	8cc
.	.	8d	8b
.	.	8g	8b
.	.	8d	8a
.	.	8f#	4a
.	.	8d	.
.	.	8f#	4r
.	.	8d	.
=46	=46	=46	=46
1r	8e	8g	4g
.	8d	8f#	.
.	8d	8f#	4g
.	8c	8e	.
.	4c	4e	4a
.	4c	4e	4a
=47	=47	=47	=47
8D	4A	4d	4f#
8C	.	.	.
8C	4A	4d	4f#
8BB	.	.	.
4BB	4G	4d	8g
.	.	.	8a
4BB	4G	4d	8b
.	.	.	8cc
=48	=48	=48	=48
1r	1r	8g	2dd
.	.	8d	.
.	.	8g	.
.	.	8d	.
.	.	8g	4dd
.	.	8d	.
.	.	8g	4dd
.	.	8d	.
=49	=49	=49	=49
1r	1r	8b	8dd
.	.	8d	8cc
.	.	8a	8cc
.	.	8d	8b
.	.	8g	4b
.	.	8d	.
.	.	8g	4r
.	.	8d	.
=50	=50	=50	=50
1r	1r	8a	8cc
.	.	8d	8b
.	.	8g	8b
.	.	8d	8a
.	.	8f#	4a
.	.	8d	.
.	.	8f#	4r
.	.	8d	.
=51	=51	=51	=51
1r	8e	8g	4gg
.	8d	8f#	.
.	8d	8f#	4gg
.	8c	8e	.
.	4c	4e	4aa
.	4c	4e	4aa
=52	=52	=52	=52
8D	4A	4d	4ff#
8C	.	.	.
8C	4A	4d	4ff#
8BB	.	.	.
4BB	4G	4d	4gg
4BB	4G	4d	4gg
=53	=53	=53	=53
1r	8f#	2r	4aa
.	8d	.	.
.	8f#	.	4aa
.	8d	.	.
.	8g	4dd	4bb
.	8d	.	.
.	8g	4dd	8bb
.	8d	.	8ddd
=54	=54	=54	=54
1r	8a	4ff#	8ddd
.	8d	.	8ccc#
.	8a	4ff#	8ccc
.	8d	.	8bb
.	8g	4gg	2bb
.	8d	.	.
.	8g	4gg	.
.	8d	.	.
=55	=55	=55	=55
2c	4e	4ee	4.aa
.	2r	2r	.
.	.	.	8gg#
4r	.	.	8gg
.	.	.	8ff#
4d	4f#	4cc	8ee
.	.	.	8dd
=56	=56	=56	=56
4G	4g	4.gg	[1gg
2.r	2.r	.	.
.	.	8ff#	.
.	.	8ff	.
.	.	8ee	.
.	.	8dd	.
.	.	8cc	.
=57	=57	=57	=57
1r	4.g	2.b	1gg_
.	8f#	.	.
.	8f	.	.
.	8e	.	.
.	8d	4cc	.
.	8c	.	.
=58	=58	=58	=58
4.G	2.B	2.dd	1gg_
8F#	.	.	.
8F	.	.	.
8E	.	.	.
8D	4c	4ee	.
8C	.	.	.
=59	=59	=59	=59
4BB	8d	8ff	4gg]
.	8d	8ff	.
2.r	8d	8ff	2.r
.	8d	8ff	.
.	8d	8ff	.
.	8d	8ff	.
.	8d	8ff	.
.	8d	8ff	.
=60	=60	=60	=60
8B-	8g	8ee	1r
8B-	8g	8ee	.
8B-	8g	8ee	.
8B-	8g	8ee	.
8B-	8g	8ee	.
8B-	8g	8ee	.
8B-	8g	8ee	.
8B-	8g	8ee	.
=61	=61	=61	=61
8B-	8g	8ee	1ccc
8B-	8g	8ee	.
8B-	8g	8ee	.
8B-	8g	8ee	.
8B-	8g	8ee	.
8B-	8g	8ee	.
8B-	8g	8ee	.
8B-	8g	8ee	.
=62	=62	=62	=62
8B-	8g	8ee	2ccc
8B-	8g	8ee	.
8B-	8g	8ee	.
8B-	8g	8ee	.
8B-	8g	8ee	2ccc
8B-	8g	8ee	.
8B-	8g	8ee	.
8B-	8g	8ee	.
=63	=63	=63	=63
4A	4f	4ff	[2ccc
4FF	2c	2a	.
4AA	.	.	8ccc]
.	.	.	16aa
.	.	.	16ccc
4C	8e	4b-	8bb-
.	8g	.	16gg
.	.	.	16ee
=64	=64	=64	=64
4F	4f	4a	16gg
.	.	.	16ff
.	.	.	16aa
.	.	.	16ff
4F	2A	2c	4.cc
4A	.	.	.
.	.	.	16a
.	.	.	16cc
4c	4B-	8e	8b-
.	.	8g	16g
.	.	.	16e
=65	=65	=65	=65
4F	8A	8f	16e
.	.	.	16f
.	8c	8A	16a
.	.	.	16f
2.r	8c	8A	4c
.	8c	8A	.
.	8c	8A	2r
.	8c	8A	.
.	8c	8A	.
.	8c	8A	.
=66	=66	=66	=66
8r	2a	2cc	2ff
8F	.	.	.
8e-	.	.	.
8c	.	.	.
8r	2b-	2dd	4ff
8F	.	.	.
8d	.	.	4ff
8B-	.	.	.
=67	=67	=67	=67
8r	2cc	4.ee-	2aa
8E-	.	.	.
8c	.	.	.
8A	.	8cc	.
8r	2b-	2dd	2bb-
8D	.	.	.
8B-	.	.	.
8F	.	.	.
=68	=68	=68	=68
8r	2cc	2ee-	2ff#
8A	.	.	.
8e-	.	.	.
8c	.	.	.
8r	2b-	2dd	4gg
8B-	.	.	.
8d	.	.	4gg
8g	.	.	.
=69	=69	=69	=69
8r	2a	2dd	2ccc
8F#	.	.	.
8d	.	.	.
8A	.	.	.
8r	2g	4dd	2bb-
8G	.	.	.
8d	.	4dd	.
8B-	.	.	.
=70	=70	=70	=70
8r	2g	2cc#	2bb-
8G	.	.	.
8e	.	.	.
8c#	.	.	.
8r	2f#	[2dd	2aa
8F#	.	.	.
8d	.	.	.
8A	.	.	.
=71	=71	=71	=71
8r	[1e	2dd]	2gg#
8E	.	.	.
8d	.	.	.
8B	.	.	.
8r	.	2cc	4aa
8E	.	.	.
8c	.	.	4aa
8A	.	.	.
=72	=72	=72	=72
8r	2e]	2b	2dd
8E	.	.	.
8B	.	.	.
8G#	.	.	.
8r	2d#	4a	4cc
8D#	.	.	.
8c	.	4a	4cc
8A	.	.	.
=73	=73	=73	=73
4E	4e	4g#	4.b
2.r	2.r	2.r	.
.	.	.	8e
.	.	.	8a
.	.	.	8b
.	.	.	8cc
.	.	.	8dd
=74	=74	=74	=74
1r	1r	8a	2ee
.	.	8e	.
.	.	8a	.
.	.	8e	.
.	.	8a	4ee
.	.	8e	.
.	.	8a	4ee
.	.	8e	.
=75	=75	=75	=75
1r	1r	8cc	8ee
.	.	8e	8dd
.	.	8b	8dd
.	.	8e	8cc
.	.	8a	4cc
.	.	8e	.
.	.	8a	4r
.	.	8e	.
=76	=76	=76	=76
4.r	4.r	8g#	8dd
.	.	8e	8cc
.	.	8a	8cc
8E	8E	8e	8b
8G#	8B	4g#	4b
8A	8c	.	.
8B	8d	4r	4r
8c	8e	.	.
=77	=77	=77	=77
2d	2f	2g#	2b
4d	4f	4g#	4b
4d	4f	4g#	4b
=78	=78	=78	=78
8d	8f	4g#	4b
8c	8e	.	.
8c	8e	4a	4cc
8B	8d	.	.
4B	4d	4b	4dd
4r	4r	4r	4r
=79	=79	=79	=79
8B	8d	4b	4dd
8A	8c	.	.
8A	8c	4cc	4ee
8G#	8B	.	.
4G#	4B	4dd	4ff
4r	4r	4r	4r
=80	=80	=80	=80
1r	1r	4a	16gg#
.	.	.	16aa
.	.	.	16ccc
.	.	.	16aa
.	.	4f	8ff
.	.	.	8ff
.	.	4d	16cc#
.	.	.	16dd
.	.	.	16ff
.	.	.	16dd
.	.	4B	8b
.	.	.	8b
=81	=81	=81	=81
4r	4r	4G#	16a
.	.	.	16g#
.	.	.	16b
.	.	.	16g#
2G#	2B	2d	2f
4G#	4E	8c	8e
.	.	8B	8d
=82	=82	=82	=82
2A	2E	1A	4c
.	.	.	4.a
2C	2r	.	.
.	.	.	8g#
.	.	.	8g
.	.	.	8f
=83	=83	=83	=83
2D	2f	4.d	2f
.	.	8c#	.
2E	8e	8c	2r
.	8d	8B	.
.	8c	8A	.
.	8B	8G#	.
=84	=84	=84	=84
4A	4a	4a	16gg#
.	.	.	16aa
.	.	.	16ccc
.	.	.	16aa
4F	4f	4f	8ff
.	.	.	8ff
4D	4d	4d	16cc#
.	.	.	16dd
.	.	.	16ff
.	.	.	16dd
4BB	4B	4B	8b
.	.	.	8b
=85	=85	=85	=85
2GG	8d	8f	[1g
.	8B	8G	.
.	8d	8f	.
.	8B	8G	.
2r	8d	8f	.
.	8B	8G	.
.	8d	8f	.
.	8B	8G	.
=86	=86	=86	=86
2GG	8c	8e-	1g_
.	8e-	8G	.
.	8c	8e-	.
.	8e-	8G	.
2r	8c	8e-	.
.	8e-	8G	.
.	8c	8e-	.
.	8e-	8G	.
=87	=87	=87	=87
2GG	2c	8d	1g_
.	.	8G	.
.	.	8d	.
.	.	8G	.
2r	4B	8d	.
.	.	8G	.
.	4d	8d	.
.	.	8G	.
=88	=88	=88	=88
[1C	[1e-	4G	2g]
.	.	2.r	.
.	.	.	4g
.	.	.	4g
=89	=89	=89	=89
1C]	2.e-]	2a-	1g
.	.	4a-	.
.	4cc	4a-	.
=90	=90	=90	=90
1D	2b	1a-	[1f
.	4b	.	.
.	4b	.	.
=91	=91	=91	=91
2c	2.cc	1g	2f]
4c	.	.	4e-
4c	4e-	.	4cc
=92	=92	=92	=92
1G	1d	2dd	2cc
.	.	4dd	2b
.	.	4dd	.
=93	=93	=93	=93
1G	1B-	1cc#	2ee
.	.	.	4ee
.	.	.	4ee
=94	=94	=94	=94
1F	2A	2aa	2ee
.	2d	4aa	2dd
.	.	4aa	.
=95	=95	=95	=95
1F	1d#	2aa	2ccc
.	.	4aa	4ccc
.	.	4aa	4ccc
=96	=96	=96	=96
1E	1e	1aa	1ccc
=97	=97	=97	=97
1E	1e	1gg#	1bb
=98	=98	=98	=98
1r	8g	8b	1r
.	8g	8b	.
.	8g	8b	.
.	8g	8b	.
.	8g	8b	.
.	8g	8b	.
.	8g	8b	.
.	8g	8b	.
=99	=99	=99	=99
1r	4g	1b	8r
.	.	.	8b
.	4r	.	8bb
.	.	.	8gg
.	4f#	.	8r
.	.	.	8b
.	4r	.	8aa
.	.	.	8ff#
=100	=100	=100	=100
1r	4e	2b	8r
.	.	.	8b
.	4r	.	8gg
.	.	.	8ee
.	4d#	2b	8r
.	.	.	8b
.	4r	.	8ff#
.	.	.	8dd#
=101	=101	=101	=101
2G	2e	1b	8r
.	.	.	8b
.	.	.	8aa#
.	.	.	8bb
2F#	2d#	.	8r
.	.	.	8b
.	.	.	8gg#
.	.	.	8aa
=102	=102	=102	=102
2E	2e	2b	8r
.	.	.	8b
.	.	.	8ff#
.	.	.	8gg
2B	2d#	2b	8r
.	.	.	8b
.	.	.	8ee#
.	.	.	8ff#
=103	=103	=103	=103
4.f#	4.a	4.dd#	4.ccc
8g	8b	8ee	8bb
8a	8cc	8ff#	8aa
4.r	4.r	4.r	8r
.	.	.	16ff#
.	.	.	16gg
.	.	.	16aa
.	.	.	16gg
=104	=104	=104	=104
4.f#	4.a	4.dd#	4.ccc
8g	8b	8ee	8bb
8a	8cc	8ff#	8aa
4.r	4.r	4.r	8r
.	.	.	16ff#
.	.	.	16gg
.	.	.	16aa
.	.	.	16gg
=105	=105	=105	=105
1r	1r	1r	16ff#
.	.	.	16gg
.	.	.	16aa
.	.	.	16gg
.	.	.	16ff#
.	.	.	16gg
.	.	.	16aa
.	.	.	16gg
.	.	.	16ff#
.	.	.	16gg
.	.	.	16aa
.	.	.	16gg
.	.	.	16ff#
.	.	.	16gg
.	.	.	16aa
.	.	.	16gg
=106	=106	=106	=106
4.F	4.a	4.dd#	4.ccc
8G	8b	8ee	8bb
4A	4cc	4ff#	8aa
.	.	.	8r
4A#	4a#	[4ee	[4gg
=107	=107	=107	=107
2B	2b	4ee]	4gg]
.	.	4.gg	4.bb
2BB	2B	.	.
.	.	8ff#	8aa
.	.	8ee	8gg
.	.	8dd#	8ff#
=108	=108	=108	=108
1r	8e	8ee	4ee
.	8e	8b	.
.	8e	8b	2.r
.	8e	8b	.
.	8e	8b	.
.	8e	8b	.
.	8e	8b	.
.	8e	8b	.
=109	=109	=109	=109
1r	8e	8b	1gg
.	8e	8b	.
.	8e	8b	.
.	8e	8b	.
.	8e	8b	.
.	8e	8b	.
.	8e	8b	.
.	8e	8b	.
=110	=110	=110	=110
1f	8d	8b	2gg
.	8d	8b	.
.	8d	8b	.
.	8d	8b	.
.	8d	8b	2gg
.	8d	8b	.
.	8d	8b	.
.	8d	8b	.
=111	=111	=111	=111
4e	4e	4cc	[2gg
4CC	2e	2g	.
4EE	.	.	8gg]
.	.	.	16ee
.	.	.	16gg
4GG	4f	8b	8ff
.	.	8dd	16dd
.	.	.	16b
=112	=112	=112	=112
4C	4e	4cc	16b
.	.	.	16cc
.	.	.	16ee
.	.	.	16cc
4C	2G	2e	4.g
4E	.	.	.
.	.	.	16e
.	.	.	16g
4G	8B	4f	8f
.	8d	.	16d
.	.	.	16B
=113	=113	=113	=113
4c	4c	4e	16B
.	.	.	16c
.	.	.	16e
.	.	.	16c
2.r	2.r	2.r	8G
.	.	.	2r
.	.	.	8r
=114	=114	=114	=114
1r	8e	8cc#	1r
.	8e	8cc#	.
.	8e	8cc#	.
.	8e	8cc#	.
.	8e	8cc#	.
.	8e	8cc#	.
.	8e	8cc#	.
.	8e	8cc#	.
=115	=115	=115	=115
1r	8e	8cc#	1aa
.	8e	8cc#	.
.	8e	8cc#	.
.	8e	8cc#	.
.	8e	8cc#	.
.	8e	8cc#	.
.	8e	8cc#	.
.	8e	8cc#	.
=116	=116	=116	=116
1r	8e	8cc#	2aa
.	8e	8cc#	.
.	8e	8cc#	.
.	8e	8cc#	.
.	8e	8cc#	2aa
.	8e	8cc#	.
.	8e	8cc#	.
.	8e	8cc#	.
=117	=117	=117	=117
4r	4f	4dd	[2aa
4DD	2f	2a	.
4FF	.	.	8aa]
.	.	.	16ff
.	.	.	16aa
4AA	4g	8cc#	8gg
.	.	8ee	16ee
.	.	.	16cc#
=118	=118	=118	=118
4D	4f	4dd	16cc#
.	.	.	16dd
.	.	.	16ff
.	.	.	16dd
4D	2A	2f	4.a
4F	.	.	.
.	.	.	16f
.	.	.	16a
4A	8c#	4g	8g
.	8e	.	16e
.	.	.	16c#
=119	=119	=119	=119
4d	4d	4f	16c#
.	.	.	16d
.	.	.	16f
.	.	.	16d
2.r	2.r	2.r	8A
.	.	.	2r
.	.	.	8r
=120	=120	=120	=120
1r	8B-	8d	1r
.	8B-	8d	.
.	8B-	8d	.
.	8B-	8d	.
.	8B-	8d	.
.	8B-	8d	.
.	8B-	8d	.
.	8B-	8d	.
=121	=121	=121	=121
1r	8B-	8d	[2gg
.	8B-	8d	.
.	8B-	8d	.
.	8B-	8d	.
.	8B-	8d	8gg]
.	8B-	8d	16aa
.	.	.	16bb-
.	8B-	8d	16aa
.	.	.	16gg
.	8B-	8d	16ff
.	.	.	16ee
=122	=122	=122	=122
1r	1A	2.e	2dd
.	.	.	4cc#
.	.	4f	4dd
=123	=123	=123	=123
1r	[1G	2.f	2cc
.	.	.	4b
.	.	4e	4cc
=124	=124	=124	=124
1r	1G]	2.B	4.dd
.	.	.	8ee
.	.	.	4ff
.	.	4c	8ee
.	.	.	8cc
=125	=125	=125	=125
2g	2G	8G	[1gg
.	.	8g	.
.	.	8b	.
.	.	8dd	.
2f	2r	8r	.
.	.	8g	.
.	.	8b	.
.	.	8dd	.
=126	=126	=126	=126
2e	1r	8r	1gg_
.	.	8g	.
.	.	8cc	.
.	.	8ee	.
2B	.	8r	.
.	.	8g	.
.	.	8dd	.
.	.	8ff	.
=127	=127	=127	=127
2c	2r	8r	2gg]
.	.	8g	.
.	.	8ee	.
.	.	8gg	.
2F	2b	4gg	8gg
.	.	.	8gg
.	.	4gg	8bb
.	.	.	8ddd
=128	=128	=128	=128
2E	2cc	[1gg	8r
.	.	.	8gg
.	.	.	8ccc
.	.	.	8eee
2BB	2dd	.	8r
.	.	.	8gg
.	.	.	8ddd
.	.	.	8fff
=129	=129	=129	=129
2C	4ee	4gg]	16fff
.	.	.	16eee
.	.	.	16ggg
.	.	.	16eee
.	4r	4r	8ccc
.	.	.	2r
2r	4cc	4ee	.
.	4cc	4ee	.
.	.	.	8r
=130	=130	=130	=130
2GG	4dd	4ff	16eee
.	.	.	16ddd
.	.	.	16fff
.	.	.	16ddd
.	4r	4r	8gg
.	.	.	2r
2r	4dd	4ff	.
.	4dd	4ff	.
.	.	.	8r
=131	=131	=131	=131
4c	4cc	4ee	16fff
.	.	.	16eee
.	.	.	16ggg
.	.	.	16eee
4r	4r	4r	8ccc
.	.	.	2r
16BB	4cc	4ee	.
16C	.	.	.
16E	.	.	.
16C	.	.	.
4GG	4cc	4ee	.
.	.	.	8r
=132	=132	=132	=132
2r	4dd	4ff	16eee
.	.	.	16ddd
.	.	.	16fff
.	.	.	16ddd
.	4r	4r	8gg
.	.	.	2r
16c	4dd	4ff	.
16B	.	.	.
16d	.	.	.
16B	.	.	.
4G	4dd	4ff	.
.	.	.	8r
=133	=133	=133	=133
4E	4cc	4gg	16bb
.	.	.	16ccc
.	.	.	16eee
.	.	.	16ccc
2.r	2.r	2.r	8gg
.	.	.	8r
.	.	.	16ff
.	.	.	16ee
.	.	.	16gg
.	.	.	16ee
.	.	.	8cc
.	.	.	8r
=134	=134	=134	=134
4F	4cc	4aa	16gg#
.	.	.	16aa
.	.	.	16ccc
.	.	.	16aa
2.r	2.r	2.r	8ff
.	.	.	8r
.	.	.	16ee
.	.	.	16ff
.	.	.	16aa
.	.	.	16ff
.	.	.	8dd
.	.	.	8r
=135	=135	=135	=135
1r	1r	1r	2.r
.	.	.	8aa
.	.	.	8gg
=136	=136	=136	=136
2F	2a	2dd	8gg
.	.	.	8ff
.	.	.	8ff
.	.	.	8ee
2r	2r	2r	8ee
.	.	.	8dd
.	.	.	8ff
.	.	.	8ee
=137	=137	=137	=137
1G	1d	1f	8ee
.	.	.	8dd
.	.	.	8dd
.	.	.	8cc#
.	.	.	8cc
.	.	.	8b
.	.	.	8a
.	.	.	8g
=138	=138	=138	=138
4C	4c	4e	4cc
2.r	2.r	2.r	8r
.	.	.	8g
.	.	.	8cc
.	.	.	8dd
.	.	.	8ee
.	.	.	8ff
=139	=139	=139	=139
1r	1r	8cc	2gg
.	.	8g	.
.	.	8cc	.
.	.	8g	.
.	.	8cc	4gg
.	.	8g	.
.	.	8cc	4gg
.	.	8g	.
=140	=140	=140	=140
1r	1r	8ee	8gg
.	.	8g	8ff
.	.	8dd	8ff
.	.	8g	8ee
.	.	8cc	4ee
.	.	8g	.
.	.	8cc	4r
.	.	8g	.
=141	=141	=141	=141
1r	1r	8dd	8ff
.	.	8g	8ee
.	.	8cc	8ee
.	.	8g	8dd
.	.	8b	4dd
.	.	8g	.
.	.	8b	4r
.	.	8g	.
=142	=142	=142	=142
1r	8cc	8a	4cc
.	8b	8g	.
.	8b	8g	4cc
.	8a	8f	.
.	4a	4f	4dd
.	4a	4f	4dd
=143	=143	=143	=143
8G	4g	4d	4b
8F	.	.	.
8F	4g	4d	4b
8E	.	.	.
4E	4g	4c	8cc
.	.	.	8dd
4E	4g	4c	8ee
.	.	.	8ff
=144	=144	=144	=144
1r	1r	8cc	2gg
.	.	8g	.
.	.	8cc	.
.	.	8g	.
.	.	8cc	4gg
.	.	8g	.
.	.	8cc	4gg
.	.	8g	.
=145	=145	=145	=145
2r	2r	8ee	8gg
.	.	8g	8ff
.	.	8dd	8ff
.	.	8g	8ee
8c	8e	4cc	4ee
8d	8f	.	.
8d	8f	4r	4r
8e	8g	.	.
=146	=146	=146	=146
2r	2r	8dd	8ff
.	.	8cc	8ee
.	.	8cc	8ee
.	.	8b	8dd
8G	8B	4b	4dd
8A	8c	.	.
8A	8c	4r	4r
8B	8d	.	.
=147	=147	=147	=147
4c	8e	8g	4cc
.	8d	8f	.
2.r	8d	8f	2cc
.	8c	8e	.
.	8f	8a	.
.	8e	8g	.
.	8e	8g	[4dd
.	8d	8f	.
=148	=148	=148	=148
1r	8g	8b	4dd]
.	8f	8a	.
.	8f	8a	2ee
.	8e	8g	.
.	8a	8cc	.
.	8g	8b	.
.	8g	8b	4ff
.	8f	8a	.
=149	=149	=149	=149
8G	2g	8b	2ff
8A	.	8cc	.
8A	.	8cc	.
8B	.	8dd	.
8c	8g	8e	8ee
8d	8f	8f	8dd
8d	8f	8f	8dd
8e	8e	8g	8cc
=150	=150	=150	=150
4F	4f	4a	4.dd
2r	2r	2r	.
.	.	.	8cc#
.	.	.	8cc
.	.	.	8b
4G	4d	4f	8a
.	.	.	8g
=151	=151	=151	=151
4C	4e	4.cc	[1cc
2.r	2.r	.	.
.	.	8b	.
.	.	8b-	.
.	.	8a	.
.	.	8g	.
.	.	8f	.
=152	=152	=152	=152
1r	4.c	2.e	1cc_
.	8B	.	.
.	8B-	.	.
.	8A	.	.
.	8G	4f	.
.	8F	.	.
=153	=153	=153	=153
4.C	2.E	2.g	1cc_
8BB	.	.	.
8BB-	.	.	.
8AA	.	.	.
8GG	4F	4a	.
8FF	.	.	.
=154	=154	=154	=154
4EE	8G	8b-	4cc]
.	8g	8b-	.
2.r	8g	8b-	2.r
.	8g	8b-	.
.	8g	8b-	.
.	8g	8b-	.
.	8g	8b-	.
.	8g	8b-	.
=155	=155	=155	=155
2C	4e	2e	[1cc
.	2.r	.	.
8C	.	8e	.
8D	.	8f	.
8D	.	8f	.
8E	.	8g	.
=156	=156	=156	=156
4E	2e	2g	1cc]
2.r	.	.	.
.	8e	8g	.
.	8f	8a	.
.	8f	8a	.
.	8g	8b-	.
=157	=157	=157	=157
2.e	2.g	2b-	2cc
.	.	8b-	8cc#
.	.	8g	8dd
4d	4f	4a	8dd
.	.	.	8ee
=158	=158	=158	=158
4c#	4e	4a	4gg
4c#	4e	4a	4gg
4d	4d	4a	4ff#
4d	4d	4a	4ff#
=159	=159	=159	=159
4B	4d	4g	4ff
4B	4d	4g	4ff
4c	4e	4g	4ee
4c	4e	4g	4ee
=160	=160	=160	=160
2F	2f	2d	4.aa
.	.	.	8gg#
2r	2r	2r	8gg
.	.	.	8ff#
.	.	.	8ff
.	.	.	8ee
=161	=161	=161	=161
1r	1r	1r	8ee-
.	.	.	8dd
.	.	.	8cc#
.	.	.	8dd
.	.	.	8a
.	.	.	8aa
.	.	.	8ff
.	.	.	8dd
=162	=162	=162	=162
8G	8e	8cc	4cc
8G	8e	8cc	.
8G	8e	8cc	4ee
8G	8e	8cc	.
8G	8e	8cc	4gg
8G	8e	8cc	.
8G	8e	8cc	4ccc
8G	8e	8cc	.
=163	=163	=163	=163
8G	8e	8cc	4eee
8G	8e	8cc	.
8G	8e	8cc	4r
8G	8e	8cc	.
8G	8e	8cc	4ggg
8G	8e	8cc	.
8G	8e	8cc	4r
8G	8e	8cc	.
=164	=164	=164	=164
8G	8f	8b	1dd
8G	8f	8b	.
8G	8f	8b	.
8G	8f	8b	.
8G	8f	8b	.
8G	8f	8b	.
8G	8f	8b	.
8G	8f	8b	.
=165	=165	=165	=165
8A	8f#	1cc	2cc
8A	8f#	.	.
8A	8f#	.	.
8A	8f#	.	.
8A	8f#	.	2r
8A	8f#	.	.
8A	8f#	.	.
8A	8f#	.	.
=166	=166	=166	=166
8A	8f#	2cc	1r
8A	8f#	.	.
8A	8f#	.	.
8A	8f#	.	.
8A	8f#	2cc	.
8A	8f#	.	.
8A	8f#	.	.
8A	8f#	.	.
=167	=167	=167	=167
4G	8g	8cc	1gg
.	8e	8cc	.
2.r	8e	8cc	.
.	8e	8cc	.
.	8e	8cc	.
.	8e	8cc	.
.	8e	8cc	.
.	8e	8cc	.
=168	=168	=168	=168
1r	8e	8cc	2gg
.	8e	8cc	.
.	8e	8cc	.
.	8e	8cc	.
.	8e	8cc	2gg
.	8e	8cc	.
.	8e	8cc	.
.	8e	8cc	.
=169	=169	=169	=169
8r	4e	4cc	[2gg
8GG	.	.	.
8C	2e	2g	.
8E	.	.	.
4G	.	.	8gg]
.	.	.	16ee
.	.	.	16gg
4G	4f	8b	8ff
.	.	8dd	16dd
.	.	.	16b
=170	=170	=170	=170
8r	4e	4cc	16b
.	.	.	16cc
8GG	.	.	16ee
.	.	.	16cc
8C	2c	2G 2e	4.g
8E	.	.	.
4G	.	.	.
.	.	.	16e
.	.	.	16g
4GG	8B	4b 4f 4G	8f
.	8d	.	16d
.	.	.	16B
=171	=171	=171	=171
4CC	4c	4G 4e 4cc	4c
2.r	2.r	2.r	2.r
==	==	==	==
*-	*-	*-	*-
!!!RWG1: This file contains only pitch and duration data.
!!!RWG2: Transposing instruments are not transposed.
!!!RWG3: Spines may have incompatible meters.
!!!RWG4: Durations of rests and tied notes may be interpreted.
!!!RWG: Key is interpreted using the Humdrum key tool.
!!!GTL: 6 Quators ("Jungfernquartette")
!!!OPT: The Bird
!!!AFT: stage1
!!!END: 1997/04/15
!!!KEY: 4291067336
!!!EMD: Converted from MuseData to Humdrum Dec 16, 2000, by Andreas Kornstaedt using muse2kern.
!!!EMD: Manual editing by Craig Sapp, Nov 2001
